X:118
T: NUN WILL ICH EUCH WAS NEUES ERZAEHLEN
N: Z0118
O: Europa, Mitteleuropa, Deutschland
R: Erzaehlung, lustige Romanze, Unsinns - Verse
M: 2/4
L: 1/8
K: F
F | F2F2 | F2EF | G2FG | AGF
G | A2AA | A2GA | B2AB | cBA
c | dcde | fedc | B2A2 | G2
GA | B2cB | A2GA | B2cB | A2
c2 | f2cA | c2AF | c4 | F2z

@@@ Tune index: 9876
